X: 2236
T: Away To Chincoteague
R: jig
M: 6/8
K: Aminor
zF|"Am"EAB cBc|A2e efe|"G"d2c B2c|dBA G2A|
"Am"EAB cBc|A2e efe|"Dm"d2c "E"B[e2E2]|"Am"A3A:|
cd|"Am"e2c Acd|efe Aec|"G"d2c B2c|dBA G2 g/f/|
"Am"e2c Acd|e/f/ec A2f|"Dm"e2d "E"Bc2|"Am"A3A||
cd|"Am"e2c Acd|eae Aec|"G"d2c BGB|de^f g2a|
"Am"e2c Acd|e/f/ec A2f|"Dm"e2d "E"Bc2|"Am"A3A||

